X: 53
T: No_146_Fox_Dance_Song_(a).krn
N: Derived from No_146_Fox_Dance_Song_(a).krn
%%abc-version 2.0
%%abcx-abcm2ps-target-version 5.9.1 (29 Sep 2008)
%%abc-creator hum2abc beta
%%abcx-conversion-date 2019/03/15 08:38:45
%%humdrum-veritas 2212148784
%%humdrum-veritas-data 3228166461
%%linebreak <none>
%%barnumbers 0
L: 1/8
M: 3/4
K: G clef=bass
[K:clef=bass][M:3/4]z4D,G,/G,/ ]|:  
G,3/D,/(G,2D,)D, ||  
[M:2/4]D,2D, z | 
B,,D,/D,/ D,D, ||  
[M:3/4]E,D,/D,/D,2D, z | 
G,A,G,2(F,2 | 
D,)D,/D,/D,2D,2 ||  
[M:2/4]B,,D,/D,/ D,D, ||  
[M:3/4]E,D,/D,/D,2D, z | 
[M:2/4]z2D,G,/G,/ :|]  



